data/styles/clear/style-night/symbols/toll_booth-m.svg

<svg height="24" viewBox="0 0 24 24" width="24"><g fill="none" fill-rule="evenodd"><circle cx="12" cy="12" fill="#fff" opacity=".4" r="12"/><circle cx="12" cy="12" fill="#3d3d36" r="11"/><path d="m10.2 4-3.5 2.1v10.5h-.7v1.4h8.4v-1.4h-.7v-3.215625l.984375-.634375-.153125-1.53125-.83125.503125v-5.621875zm-2.1 3.5h4.2v4.9h-4.2zm11.134375.7-.56875.35.153125 1.53125 1.18125-.7zm-1.203125.7-1.18125.765625.13125 1.553125 1.203125-.7875zm-1.75 1.115625-1.18125.765625.13125 1.553125 1.203125-.765625z" fill="#fff" fill-rule="nonzero" opacity=".6"/></g></svg>

<svg width="24" height="24" viewBox="0 0 24 24">
  <g fill="none" fill-rule="evenodd">
    <circle cx="12" cy="12" r="12" fill="#FFF" opacity=".4"/>
    <circle cx="12" cy="12" r="11" fill="#3D3D36"/>
    <path fill="#FFF" fill-rule="nonzero" d="M10.2,4 L6.7,6.1 L6.7,16.6 L6,16.6 L6,18 L14.4,18 L14.4,16.6 L13.7,16.6 L13.7,13.384375 L14.684375,12.75 L14.53125,11.21875 L13.7,11.721875 L13.7,6.1 L10.2,4 Z M8.1,7.5 L12.3,7.5 L12.3,12.4 L8.1,12.4 L8.1,7.5 Z M19.234375,8.2 L18.665625,8.55 L18.81875,10.08125 L20,9.38125 L19.234375,8.2 Z M18.03125,8.9 L16.85,9.665625 L16.98125,11.21875 L18.184375,10.43125 L18.03125,8.9 Z M16.28125,10.015625 L15.1,10.78125 L15.23125,12.334375 L16.434375,11.56875 L16.28125,10.015625 Z" opacity=".6"/>
  </g>
</svg>
